symbols/web/storefront/materialsymbolssharp/storefront_wght600gradN25_24px.svg

<svg xmlns="http://www.w3.org/2000/svg" height="24" width="24"><path d="M2.675 21.45V11.225q-.65-.575-.887-1.488-.238-.912.062-1.912L2.875 4.5q.25-.775.875-1.288Q4.375 2.7 5.2 2.7h13.625q.825 0 1.45.487.625.488.875 1.313l1.025 3.325q.3.95.05 1.837-.25.888-.875 1.488v10.3Zm11.5-11.55q.625 0 .925-.4.3-.4.225-.9L14.8 5.225h-1.675v3.5q0 .5.3.837.3.338.75.338Zm-4.425 0q.5 0 .825-.338.325-.337.325-.837v-3.5H9.225L8.7 8.6q-.075.5.225.9t.825.4Zm-4.375 0q.425 0 .713-.3.287-.3.337-.725l.55-3.65h-1.7l-.975 3.2q-.175.525.112 1 .288.475.963.475Zm13.275 0q.65 0 .95-.462.3-.463.125-1.013l-1-3.2H17.05l.55 3.65q.05.4.338.712.287.313.712.313ZM5.2 18.925h13.625V12.4q-.05.025-.1.025h-.075q-.575 0-1.1-.188-.525-.187-1.05-.637-.475.4-1.037.612-.563.213-1.188.213t-1.2-.213Q12.5 12 12.025 11.6q-.45.4-1.012.612-.563.213-1.163.213-.65 0-1.25-.2T7.525 11.6q-.6.5-1.137.662-.538.163-1.013.163h-.087q-.063 0-.088-.025Zm0 0h13.625Z"/></svg>

<svg xmlns="http://www.w3.org/2000/svg" height="24" width="24"><path d="M2.675 21.45V11.225Q2.025 10.65 1.788 9.737Q1.55 8.825 1.85 7.825L2.875 4.5Q3.125 3.725 3.75 3.212Q4.375 2.7 5.2 2.7H18.825Q19.65 2.7 20.275 3.187Q20.9 3.675 21.15 4.5L22.175 7.825Q22.475 8.775 22.225 9.662Q21.975 10.55 21.35 11.15V21.45ZM14.175 9.9Q14.8 9.9 15.1 9.5Q15.4 9.1 15.325 8.6L14.8 5.225H13.125V8.725Q13.125 9.225 13.425 9.562Q13.725 9.9 14.175 9.9ZM9.75 9.9Q10.25 9.9 10.575 9.562Q10.9 9.225 10.9 8.725V5.225H9.225L8.7 8.6Q8.625 9.1 8.925 9.5Q9.225 9.9 9.75 9.9ZM5.375 9.9Q5.8 9.9 6.088 9.6Q6.375 9.3 6.425 8.875L6.975 5.225H5.275Q5.275 5.225 5.275 5.225Q5.275 5.225 5.275 5.225L4.3 8.425Q4.125 8.95 4.412 9.425Q4.7 9.9 5.375 9.9ZM18.65 9.9Q19.3 9.9 19.6 9.438Q19.9 8.975 19.725 8.425L18.725 5.225Q18.725 5.225 18.725 5.225Q18.725 5.225 18.725 5.225H17.05L17.6 8.875Q17.65 9.275 17.938 9.587Q18.225 9.9 18.65 9.9ZM5.2 18.925H18.825V12.4Q18.775 12.425 18.725 12.425Q18.675 12.425 18.65 12.425Q18.075 12.425 17.55 12.237Q17.025 12.05 16.5 11.6Q16.025 12 15.463 12.212Q14.9 12.425 14.275 12.425Q13.65 12.425 13.075 12.212Q12.5 12 12.025 11.6Q11.575 12 11.013 12.212Q10.45 12.425 9.85 12.425Q9.2 12.425 8.6 12.225Q8 12.025 7.525 11.6Q6.925 12.1 6.388 12.262Q5.85 12.425 5.375 12.425Q5.35 12.425 5.288 12.425Q5.225 12.425 5.2 12.4ZM5.2 18.925Q5.225 18.925 5.288 18.925Q5.35 18.925 5.375 18.925Q5.85 18.925 6.388 18.925Q6.925 18.925 7.525 18.925Q8 18.925 8.6 18.925Q9.2 18.925 9.85 18.925Q10.45 18.925 11.013 18.925Q11.575 18.925 12.025 18.925Q12.5 18.925 13.075 18.925Q13.65 18.925 14.275 18.925Q14.9 18.925 15.463 18.925Q16.025 18.925 16.5 18.925Q17.025 18.925 17.55 18.925Q18.075 18.925 18.65 18.925Q18.675 18.925 18.725 18.925Q18.775 18.925 18.825 18.925Z"/></svg>
